assets/walk.svg

<?xml version="1.0" encoding="utf-8"?>
<svg fill="none" height="24" width="24" xmlns="http://www.w3.org/2000/svg"><g fill="#000"><path d="m8.33 17.33h-2.66v1.34h2.66zm4 0h-2.66v1.34h2.66zm4 0h-2.66v1.34h2.66z"/><path d="m20.76 11.33h-2.01l-6.89-3.67-1.22-2.29a1.978 1.978 0 0 0 -3.72.93v.95l-1 1.88a.425.425 0 0 1 -.71.01l-.4-.72a2.023 2.023 0 0 0 -1.81-1.09h-1.67v7.1l-.31.29a2.32 2.32 0 0 0 -.69 1.67 2.279 2.279 0 0 0 2.28 2.28h1.72v-1.34h-1.72a.94.94 0 0 1 -.94-.94.973.973 0 0 1 .29-.7l.04-.04v.02h10.33v-1.34h-9.66v-5.66h.33a.7.7 0 0 1 .62.39l.42.75a1.755 1.755 0 0 0 3.07-.05l1.16-2.17v-1.29a.64.64 0 0 1 .63-.63.622.622 0 0 1 .55.34l1.41 2.65.69.37-.78 1.46 1.2.64.78-1.47 1.29.69-.78 1.47 1.19.64.78-1.48 1.28.68-.78 1.48 1.19.64.79-1.48.7.37h2.35a1.579 1.579 0 0 1 1.57 1.57 1.664 1.664 0 0 1 -.49 1.18 6.742 6.742 0 0 1 -4.17 1.88v1.34a8.093 8.093 0 0 0 5.12-2.26 3.002 3.002 0 0 0 .66-3.254 2.905 2.905 0 0 0 -2.69-1.796z"/></g></svg>

<?xml version="1.0" encoding="UTF-8" standalone="no"?>
<svg
   fill="none"
   height="24"
   width="24"
   version="1.1"
   id="svg20"
   sodipodi:docname="walk.svg"
   inkscape:version="1.2.2 (732a01da63, 2022-12-09)"
   xmlns:inkscape="http://www.inkscape.org/namespaces/inkscape"
   xmlns:sodipodi="http://sodipodi.sourceforge.net/DTD/sodipodi-0.dtd"
   xmlns="http://www.w3.org/2000/svg"
   xmlns:svg="http://www.w3.org/2000/svg">
  <defs
     id="defs24" />
  <sodipodi:namedview
     id="namedview22"
     pagecolor="#ffffff"
     bordercolor="#000000"
     borderopacity="0.25"
     inkscape:showpageshadow="2"
     inkscape:pageopacity="0.0"
     inkscape:pagecheckerboard="0"
     inkscape:deskcolor="#d1d1d1"
     showgrid="false"
     inkscape:zoom="9.8333333"
     inkscape:cx="-0.61016949"
     inkscape:cy="12"
     inkscape:window-width="1920"
     inkscape:window-height="1111"
     inkscape:window-x="-9"
     inkscape:window-y="-9"
     inkscape:window-maximized="1"
     inkscape:current-layer="svg20" />
  <g
     fill="#000"
     id="g18">
    <path
       id="path16"
       d="M 20.76,11.33 H 18.75 L 11.86,7.66 10.64,5.37 A 1.978,1.978 0 0 0 6.92,6.3 v 0.95 l -1,1.88 A 0.425,0.425 0 0 1 5.21,9.14 L 4.81,8.42 A 2.023,2.023 0 0 0 3,7.33 H 1.33 v 7.1 l -0.31,0.29 a 2.32,2.32 0 0 0 -0.69,1.67 2.279,2.279 0 0 0 2.28,2.28 H 4.33 V 17.33 H 2.61 A 0.94,0.94 0 0 1 1.67,16.39 0.973,0.973 0 0 1 1.96,15.69 L 2,15.65 v 0.02 H 12.33 V 14.33 H 2.67 V 8.67 H 3 A 0.7,0.7 0 0 1 3.62,9.06 L 4.04,9.81 A 1.755,1.755 0 0 0 7.11,9.76 L 8.27,7.59 V 6.3 A 0.64,0.64 0 0 1 8.9,5.67 0.622,0.622 0 0 1 9.45,6.01 l 1.41,2.65 0.69,0.37 -0.78,1.46 1.2,0.64 0.78,-1.47 1.29,0.69 -0.78,1.47 1.19,0.64 0.78,-1.48 1.28,0.68 -0.78,1.48 1.19,0.64 0.79,-1.48 0.7,0.37 h 2.35 a 1.579,1.579 0 0 1 1.57,1.57 1.664,1.664 0 0 1 -0.49,1.18 6.742,6.742 0 0 1 -4.17,1.88 v 1.34 a 8.093,8.093 0 0 0 5.12,-2.26 3.002,3.002 0 0 0 0.66,-3.254 2.905,2.905 0 0 0 -2.69,-1.796 z m -12.43,6 H 5.67 v 1.34 h 2.66 z m 4,0 H 9.67 v 1.34 h 2.66 z m 4,0 h -2.66 v 1.34 h 2.66 z" />
  </g>
</svg>
